static/assets/images/exchanges/macaron-swap.svg

<svg width="430" height="256" viewBox="0 0 430 256" fill="none" xmlns="http://www.w3.org/2000/svg">
<path fill-rule="evenodd" clip-rule="evenodd" d="M157.603 0.756171C154.358 1.2741 146.39 1.45226 125.731 1.4688L98.1837 1.49043C73.0579 1.49043 38.9632 27.9467 28.2318 54.5722C23.9357 65.2311 21.4287 79.1973 23.5017 80.9191C24.1418 81.4497 60.5125 81.6202 214.815 81.8149L405.339 82.0554L406.181 80.8542C407.76 78.6005 406.523 70.5567 402.824 59.0096C394.469 32.9313 371.636 10.9098 345.646 3.85865C331.027 -0.106612 332.732 -0.0442623 241.478 0.0142749C177.097 0.0549964 161.105 0.19625 157.603 0.756171ZM326.597 2.01727C361.814 4.98358 389.712 26.0213 400.822 57.9916C404.253 67.864 406.417 79.2507 405.024 80.111C404.126 80.6658 104.647 80.4151 103.607 79.8577C100.852 78.3841 102.494 55.6501 106.196 43.9935C112.538 24.0247 132.053 5.73566 149.437 3.4667C151.829 3.15366 155.274 2.60519 157.094 2.2476C161.42 1.39627 316.712 1.18503 326.597 2.01727ZM25.0326 98.0068C-8.779 104.722 -8.16181 153.57 25.8114 159.55C32.2861 160.689 396.94 160.689 403.415 159.55C437.892 153.482 437.892 104.008 403.415 97.9407C397.203 96.8475 30.5478 96.9112 25.0326 98.0068ZM62.4646 175.961C35.1392 176.053 23.8848 176.255 23.3974 176.659C21.43 178.291 24.0578 192.561 28.2318 202.918C38.9632 229.544 71.2478 256 98.1837 256H331.163C366.305 256 398.612 221.681 405.531 188.046C407.225 179.809 407.319 178.261 406.222 176.695L405.421 175.552L253.134 175.691C169.376 175.767 83.5749 175.888 62.4646 175.961ZM405.395 178.742C405.849 182.491 400.638 201.604 398.547 203.859L397.399 205.098H380.341C360.8 205.098 362.251 205.493 362.199 200.168C362.138 193.827 359.337 190.591 353.91 190.591C348.346 190.591 345.464 193.979 345.442 200.542C345.426 205.243 345.783 205.098 334.193 205.098C322.552 205.098 323.122 205.354 322.601 199.897C321.298 186.257 306.946 187.006 305.286 200.803C304.759 205.182 305.025 205.082 293.955 205.09C283.098 205.099 283.603 205.312 283.09 200.517C281.65 187.062 266.866 186.534 265.679 199.895C265.184 205.465 265.986 205.098 254.287 205.098C242.542 205.098 243.434 205.543 242.853 199.389C241.698 187.12 227.41 186.992 226.292 199.242C225.727 205.442 226.413 205.098 214.613 205.098C202.777 205.098 203.395 205.409 202.902 199.202C201.932 186.992 187.524 187.155 186.373 199.389C185.792 205.543 186.684 205.098 174.939 205.098C163.422 205.098 163.714 205.206 163.708 200.932C163.692 188.498 149.649 186.231 146.221 198.111C145.754 199.728 145.313 200.304 144.441 200.429C141.393 200.869 125.911 191.346 120.903 185.949C117.114 181.868 114.761 178.194 115.481 177.486C115.772 177.201 403.29 176.873 404.223 177.157C404.818 177.337 405.304 177.995 405.395 178.742ZM77.8306 192.052C81.8506 193.766 81.9969 194.247 82.1547 206.283C82.3214 218.926 82.1013 219.762 78.0686 221.818C73.4645 224.166 69.0997 221.249 68.4481 215.392C66.4553 197.477 69.9803 188.708 77.8306 192.052ZM117.898 192.118C118.71 192.537 120.016 193.723 120.799 194.751L122.226 196.622V206.878C122.226 218.632 121.851 219.834 117.525 221.945C114.019 223.656 109.347 221.371 108.246 217.409C107.358 214.212 107.575 198.352 108.54 195.941C110.008 192.271 114.582 190.403 117.898 192.118ZM158.397 192.901C161.61 194.887 162.184 197.086 162.183 207.422C162.183 217.692 161.812 219.152 158.673 221.249C154.794 223.84 149.989 222.134 148.281 217.556C146.99 214.099 147.193 198.665 148.563 196.124C150.749 192.067 154.867 190.718 158.397 192.901ZM198.169 192.859C201.492 194.886 201.633 195.478 201.633 207.451V218.249L200.36 219.612C196.189 224.079 189.758 222.904 188.099 217.368C187.127 214.123 187.677 196.977 188.808 195.251C190.073 193.322 192.632 191.867 194.761 191.867C195.741 191.867 197.275 192.314 198.169 192.859ZM237.873 192.859C241.088 194.82 241.319 195.657 241.506 206.092C241.737 218.966 240.329 222.407 234.829 222.403C228.561 222.397 227.254 219.646 227.443 206.855C227.626 194.444 228.832 191.867 234.465 191.867C235.445 191.867 236.978 192.314 237.873 192.859ZM278.478 193.444C283.511 197.864 283.226 218.274 278.089 221.407C274.503 223.593 269.783 222.061 267.833 218.078C266.322 214.991 266.487 199.438 268.066 196.176C270.213 191.741 275.083 190.464 278.478 193.444ZM317.768 192.931C320.836 194.826 321.113 195.973 321.186 207.1C321.263 218.679 320.971 219.66 316.818 221.798C310.539 225.029 306.745 219.888 306.745 208.146C306.745 194.097 310.739 188.586 317.768 192.931ZM357.472 192.931C360.504 194.804 360.701 195.702 360.701 207.578C360.701 218.219 360.698 218.26 359.43 219.764C356.394 223.374 352.271 223.497 348.957 220.075L347.212 218.274V207.464C347.212 197.901 347.318 196.491 348.131 195.252C350.265 191.996 354.327 190.987 357.472 192.931Z" fill="#F474AB"/>
<path fill-rule="evenodd" clip-rule="evenodd" d="M157.094 2.2476C155.274 2.60519 151.829 3.15366 149.437 3.4667C132.053 5.73566 112.538 24.0247 106.196 43.9935C102.494 55.6501 100.852 78.3841 103.607 79.8577C104.647 80.4151 404.126 80.6658 405.024 80.111C406.417 79.2507 404.253 67.864 400.822 57.9916C389.712 26.0213 361.814 4.98358 326.597 2.01727C316.712 1.18503 161.42 1.39627 157.094 2.2476ZM184.753 20.9604C185.435 21.8703 186.618 23.8746 187.38 25.4144C191.365 33.4543 194.052 35.8581 205.045 41.2041C209.194 43.2224 208.557 44.7889 202.174 48.2464C195.382 51.9254 192.075 54.5964 190.16 57.9509C182.488 71.3864 183.126 71.1306 178.247 62.7267C173.787 55.0456 173.087 54.3114 165.377 49.2263C156.678 43.4896 156.68 43.4158 165.626 38.6158C172.789 34.7714 174.101 33.5943 176.272 29.0602C180.808 19.5848 182.504 17.9636 184.753 20.9604ZM360.209 40.8096C363.35 46.0436 363.824 46.5119 368.4 48.8941C374.299 51.9623 374.262 52.4458 367.814 56.6109C363.607 59.3278 363.075 59.8648 360.961 63.5284C357.068 70.278 356.207 70.3798 352.894 64.4841C350.843 60.8332 348.561 58.521 344.001 55.4758C339.78 52.6571 339.871 51.8579 344.735 49.1028C349.367 46.4801 349.752 46.1378 351.902 42.7426C356.586 35.3479 356.889 35.2779 360.209 40.8096ZM259.407 177.105C180.318 177.246 115.551 177.418 115.481 177.486C114.761 178.194 117.114 181.868 120.903 185.949C125.911 191.346 141.393 200.869 144.441 200.429C145.313 200.304 145.754 199.728 146.221 198.111C149.649 186.231 163.692 188.498 163.708 200.932C163.714 205.206 163.422 205.098 174.939 205.098C186.684 205.098 185.792 205.543 186.373 199.389C187.524 187.155 201.932 186.992 202.902 199.202C203.395 205.409 202.777 205.098 214.613 205.098C226.413 205.098 225.727 205.442 226.292 199.242C227.41 186.992 241.698 187.12 242.853 199.389C243.434 205.543 242.542 205.098 254.287 205.098C265.986 205.098 265.184 205.465 265.679 199.895C266.866 186.534 281.65 187.062 283.09 200.517C283.603 205.312 283.098 205.099 293.955 205.09C305.025 205.082 304.759 205.182 305.286 200.803C306.946 187.006 321.298 186.257 322.601 199.897C323.122 205.354 322.552 205.098 334.193 205.098C345.783 205.098 345.426 205.243 345.442 200.542C345.464 193.979 348.346 190.591 353.91 190.591C359.337 190.591 362.138 193.827 362.199 200.168C362.251 205.493 360.8 205.098 380.341 205.098H397.399L398.547 203.859C400.638 201.604 405.849 182.491 405.395 178.742C405.155 176.766 411.15 176.834 259.407 177.105Z" fill="#F7AACC"/>
</svg>

<svg xmlns="http://www.w3.org/2000/svg" fill="none" viewBox="0 0 430 256"><path fill="#F474AB" fill-rule="evenodd" d="M157.603.756c-3.245.518-11.213.696-31.872.713l-27.547.021c-25.126 0-59.22 26.457-69.952 53.082-4.296 10.66-6.803 24.625-4.73 26.347.64.53 37.01.701 191.313.896l190.524.24.842-1.2c1.579-2.255.342-10.298-3.357-21.845-8.355-26.079-31.188-48.1-57.178-55.151C331.027-.107 332.732-.044 241.478.014c-64.381.041-80.373.182-83.875.742m168.994 1.261c35.217 2.967 63.115 24.004 74.225 55.975 3.431 9.872 5.595 21.259 4.202 22.119-.898.555-300.377.304-301.417-.253-2.755-1.474-1.113-24.208 2.589-35.865 6.342-19.968 25.857-38.257 43.241-40.526 2.392-.313 5.837-.862 7.657-1.22 4.326-.85 159.618-1.062 169.503-.23M25.033 98.007c-33.812 6.715-33.195 55.563.778 61.543 6.475 1.139 371.129 1.139 377.604 0 34.477-6.068 34.477-55.542 0-61.61-6.212-1.093-372.867-1.029-378.382.067m37.432 77.954c-27.326.092-38.58.294-39.068.698-1.967 1.632.66 15.902 4.835 26.259C38.963 229.544 71.248 256 98.184 256h232.979c35.142 0 67.449-34.319 74.368-67.954 1.694-8.237 1.788-9.785.691-11.351l-.801-1.143-152.287.139c-83.758.076-169.56.197-190.67.27m342.93 2.781c.454 3.749-4.757 22.862-6.848 25.117l-1.148 1.239H380.34c-19.541 0-18.09.395-18.142-4.93-.061-6.341-2.862-9.577-8.289-9.577-5.564 0-8.446 3.388-8.468 9.951-.016 4.701.341 4.556-11.249 4.556-11.641 0-11.071.256-11.592-5.201-1.303-13.64-15.655-12.891-17.315.906-.527 4.379-.261 4.279-11.331 4.287-10.857.009-10.352.222-10.865-4.573-1.44-13.455-16.224-13.983-17.411-.622-.495 5.57.307 5.203-11.392 5.203-11.745 0-10.853.445-11.434-5.709-1.155-12.269-15.443-12.397-16.561-.147-.565 6.2.121 5.856-11.679 5.856-11.836 0-11.218.311-11.711-5.896-.97-12.21-15.378-12.047-16.529.187-.581 6.154.311 5.709-11.434 5.709-11.517 0-11.225.108-11.231-4.166-.016-12.434-14.059-14.701-17.487-2.821-.467 1.617-.908 2.193-1.78 2.318-3.048.44-18.53-9.083-23.538-14.48-3.789-4.081-6.142-7.755-5.422-8.463.291-.285 287.809-.613 288.742-.329.595.18 1.081.838 1.172 1.585M77.83 192.052c4.02 1.714 4.166 2.195 4.324 14.231.166 12.643-.054 13.479-4.086 15.535-4.605 2.348-8.97-.569-9.62-6.426-1.994-17.915 1.531-26.684 9.382-23.34m40.067.066c.812.419 2.118 1.605 2.901 2.633l1.427 1.871v10.256c0 11.754-.375 12.956-4.701 15.067-3.506 1.711-8.178-.574-9.279-4.536-.888-3.197-.671-19.057.294-21.468 1.468-3.67 6.042-5.538 9.358-3.823m40.499.783c3.213 1.986 3.787 4.185 3.786 14.521 0 10.27-.371 11.73-3.51 13.827-3.879 2.591-8.684.885-10.392-3.693-1.291-3.457-1.088-18.891.282-21.432 2.186-4.057 6.304-5.406 9.834-3.223m39.772-.042c3.323 2.027 3.464 2.619 3.464 14.592v10.798l-1.273 1.363c-4.171 4.467-10.602 3.292-12.261-2.244-.972-3.245-.422-20.391.709-22.117 1.265-1.929 3.824-3.384 5.953-3.384.98 0 2.514.447 3.408.992m39.704 0c3.215 1.961 3.446 2.798 3.633 13.233.231 12.874-1.177 16.315-6.677 16.311-6.268-.006-7.575-2.757-7.386-15.548.183-12.411 1.389-14.988 7.022-14.988.98 0 2.513.447 3.408.992m40.605.585c5.033 4.42 4.748 24.83-.389 27.963-3.586 2.186-8.306.654-10.256-3.329-1.511-3.087-1.346-18.64.233-21.902 2.147-4.435 7.017-5.712 10.412-2.732m39.29-.513c3.068 1.895 3.345 3.042 3.418 14.169.077 11.579-.215 12.56-4.368 14.698-6.279 3.231-10.073-1.91-10.073-13.652 0-14.049 3.994-19.56 11.023-15.215m39.704 0c3.032 1.873 3.229 2.771 3.229 14.647 0 10.641-.003 10.682-1.271 12.186-3.036 3.61-7.159 3.733-10.473.311l-1.745-1.801v-10.81c0-9.563.106-10.973.919-12.212 2.134-3.256 6.196-4.265 9.341-2.321" clip-rule="evenodd"/><path fill="#F7AACC" fill-rule="evenodd" d="M157.094 2.248c-1.82.357-5.265.906-7.657 1.219-17.384 2.269-36.899 20.558-43.241 40.526-3.702 11.657-5.344 34.391-2.589 35.865 1.04.557 300.519.808 301.417.253 1.393-.86-.771-12.247-4.202-22.12-11.11-31.97-39.008-53.007-74.225-55.974-9.885-.832-165.177-.62-169.503.23m27.659 18.712c.682.91 1.865 2.915 2.627 4.454 3.985 8.04 6.672 10.444 17.665 15.79 4.149 2.018 3.512 3.585-2.871 7.042-6.792 3.68-10.099 6.35-12.014 9.705-7.672 13.435-7.034 13.18-11.913 4.776-4.46-7.681-5.16-8.416-12.87-13.5-8.699-5.737-8.697-5.811.249-10.611 7.163-3.845 8.475-5.022 10.646-9.556 4.536-9.475 6.232-11.096 8.481-8.1m175.456 19.85c3.141 5.234 3.615 5.702 8.191 8.084 5.899 3.068 5.862 3.552-.586 7.717-4.207 2.717-4.739 3.254-6.853 6.917-3.893 6.75-4.754 6.852-8.067.956-2.051-3.65-4.333-5.963-8.893-9.008-4.221-2.819-4.13-3.618.734-6.373 4.632-2.623 5.017-2.965 7.167-6.36 4.684-7.395 4.987-7.465 8.307-1.933M259.407 177.105c-79.089.141-143.856.313-143.926.381-.72.708 1.633 4.382 5.422 8.463 5.008 5.397 20.49 14.92 23.538 14.48.872-.125 1.313-.701 1.78-2.318 3.428-11.88 17.471-9.613 17.487 2.821.006 4.274-.286 4.166 11.231 4.166 11.745 0 10.853.445 11.434-5.709 1.151-12.234 15.559-12.397 16.529-.187.493 6.207-.125 5.896 11.711 5.896 11.8 0 11.114.344 11.679-5.856 1.118-12.25 15.406-12.122 16.561.147.581 6.154-.311 5.709 11.434 5.709 11.699 0 10.897.367 11.392-5.203 1.187-13.361 15.971-12.833 17.411.622.513 4.795.008 4.582 10.865 4.573 11.07-.008 10.804.092 11.331-4.287 1.66-13.797 16.012-14.546 17.315-.906.521 5.457-.049 5.201 11.592 5.201 11.59 0 11.233.145 11.249-4.556.022-6.563 2.904-9.951 8.468-9.951 5.427 0 8.228 3.236 8.289 9.577.052 5.325-1.399 4.93 18.142 4.93h17.058l1.148-1.239c2.091-2.255 7.302-21.368 6.848-25.117-.24-1.976 5.755-1.908-145.988-1.637" clip-rule="evenodd"/></svg>
